components/AnnouncementBar/logos/color-gladly.svg

<svg width="340" height="140" viewBox="0 0 340 140" fill="none" xmlns="http://www.w3.org/2000/svg">
<path d="M114.999 74.3098H131.139C130.796 75.8627 130.109 77.2431 129.422 78.6235C128.564 80.349 127.362 81.7294 125.816 82.9373C124.271 84.1451 122.554 85.1804 120.493 86.0431C118.433 86.7333 116.029 87.251 113.453 87.251C110.878 87.251 108.474 86.7333 106.413 85.8706C104.181 84.8353 102.292 83.4549 100.747 81.7294C99.2013 79.8314 97.8276 77.5882 96.9691 74.8274C96.1105 72.0667 95.5954 68.9608 95.5954 65.3373C95.5954 61.8863 96.1105 58.7804 97.1408 56.0196C98.1711 53.2588 99.373 51.0157 101.09 49.1176C102.807 47.2196 104.696 45.8392 106.928 44.9765C109.161 44.1137 111.393 43.5961 113.968 43.5961C117.746 43.5961 120.837 44.4588 123.412 46.1843C125.645 47.7373 127.19 49.4627 128.22 51.5333C128.392 51.7059 128.564 52.2235 128.736 52.5686C128.907 52.9137 129.079 53.0863 129.422 53.0863H142.644C143.159 53.0863 143.503 52.5686 143.331 52.051C143.159 51.7059 143.159 51.3608 143.159 51.1882C142.301 48.4275 141.099 45.8392 139.553 43.5961C137.836 41.0078 135.776 38.7647 133.372 36.8667C130.968 34.9686 128.049 33.5882 124.786 32.5529C121.18 31.5176 117.574 31 113.625 31C108.989 31 104.696 31.8627 100.747 33.5882C96.7974 35.3137 93.3632 37.7294 90.4441 40.8353C87.525 43.9412 85.2928 47.5647 83.7474 51.7059C82.202 55.8471 81.3434 60.3333 81.3434 65.1647C81.3434 69.9961 82.202 74.4824 83.7474 78.6235C85.2928 82.7647 87.6967 86.3882 90.4441 89.4941C93.1914 92.6 96.6257 95.0157 100.575 96.7412C104.524 98.4667 108.645 99.3294 113.11 99.3294C117.746 99.3294 121.867 98.2941 125.301 96.5686C127.877 95.1882 129.938 92.7726 131.483 90.8745V97.4314C131.483 97.7765 131.826 98.1216 132.17 98.1216H143.503C143.846 98.1216 144.189 97.7765 144.189 97.4314V62.749C144.189 62.4039 143.846 62.0588 143.503 62.0588H114.999C114.655 62.0588 114.312 62.4039 114.312 62.749V73.6196C114.312 73.9647 114.484 74.3098 114.999 74.3098Z" fill="black"/>
<path d="M150.199 98.8118H162.047C162.391 98.8118 162.734 98.4667 162.734 98.1216V31.6902C162.734 31.3451 162.391 31 162.047 31H150.199C149.856 31 149.512 31.3451 149.512 31.6902V98.1216C149.512 98.4667 149.856 98.8118 150.199 98.8118Z" fill="black"/>
<path d="M213.732 87.5961V65.1647C213.732 62.749 213.389 60.3333 212.702 58.2627C212.015 56.0196 210.813 54.1216 209.096 52.5686C207.379 51.0157 205.147 49.8078 202.571 48.7726C199.824 47.9098 196.561 47.3922 192.44 47.3922C189.006 47.3922 186.087 47.7373 183.339 48.6C180.592 49.4627 178.36 50.498 176.471 52.051C174.582 53.6039 172.865 55.3294 171.835 57.2275C170.805 58.9529 170.118 60.6784 169.774 62.5765C169.774 62.749 169.603 63.2667 169.603 63.7843C169.603 64.302 169.946 64.6471 170.289 64.6471H182.653C182.996 64.6471 183.339 64.4745 183.339 64.1294C183.511 63.7843 183.683 63.2667 183.855 62.749C184.541 61.5412 185.228 60.6784 186.43 59.9882C187.976 59.1255 190.208 58.6078 192.784 58.6078C195.531 58.6078 197.42 58.9529 198.793 59.8157C199.995 60.5059 200.682 61.5412 200.682 62.9216C200.682 64.6471 199.652 65.8549 197.763 66.5451C195.531 67.4078 191.925 68.2706 186.945 68.9608C184.713 69.3059 182.309 69.651 180.077 70.3412C177.845 70.8588 175.613 71.7216 173.895 72.9294C172.007 74.1373 170.461 75.5177 169.259 77.4157C168.057 79.3137 167.542 81.5569 167.542 84.4902C167.542 87.251 168.057 89.4941 169.088 91.5647C170.118 93.4627 171.491 95.1882 173.209 96.3961C174.926 97.6039 176.814 98.4667 179.047 98.9843C181.279 99.502 183.339 99.8471 185.572 99.8471C189.864 99.8471 193.299 98.9843 196.046 97.4314C198.107 96.2235 199.824 94.8431 201.197 92.9451C201.369 93.9804 202.228 98.6392 202.228 98.6392H213.904C213.732 98.6392 213.732 89.8392 213.732 87.5961ZM200.511 79.1412C200.511 81.902 199.48 84.1451 197.248 85.698C195.016 87.4235 191.925 88.2863 188.319 88.2863C185.572 88.2863 183.683 87.9412 182.481 87.0784C181.451 86.3882 180.936 85.3529 180.936 83.9725C180.936 82.2471 181.622 81.2118 182.824 80.5216C184.198 79.8314 186.259 79.1412 188.834 78.6235C191.41 78.1059 193.814 77.5882 196.046 77.0706C197.763 76.7255 199.309 76.0353 200.682 75.3451V79.1412H200.511Z" fill="black"/>
<path d="M267.821 31H255.973C255.63 31 255.286 31.3451 255.286 31.6902V53.7765C254.084 52.3961 252.711 51.0157 250.993 49.9804C248.418 48.2549 244.984 47.3922 241.034 47.3922C237.943 47.3922 235.024 48.0824 232.277 49.4627C229.53 50.8431 227.126 52.5686 224.893 54.9843C222.833 57.2275 221.116 60.1608 219.914 63.2667C218.712 66.5451 218.025 69.9961 218.025 73.7922C218.025 77.5882 218.54 81.0392 219.742 84.3176C220.944 87.4235 222.489 90.1843 224.55 92.6C226.611 95.0157 229.014 96.7412 231.762 98.1216C234.509 99.502 237.6 100.02 240.691 100.02C244.468 100.02 247.731 99.1569 250.478 97.4314C252.367 96.2235 253.912 94.8431 255.286 93.1176V98.1216C255.286 98.4667 255.63 98.8118 255.973 98.8118H267.478C267.821 98.8118 268.164 98.4667 268.164 98.1216V31.6902C268.508 31.3451 268.164 31 267.821 31ZM254.256 79.6588C253.569 81.3843 252.711 82.7647 251.68 83.9725C250.65 85.1804 249.448 86.0431 247.903 86.7333C244.984 87.9412 241.721 87.9412 238.802 86.7333C237.428 86.0431 236.055 85.1804 235.024 83.9725C233.994 82.7647 233.136 81.3843 232.449 79.6588C231.762 77.9333 231.59 75.8627 231.59 73.6196C231.59 71.3765 231.934 69.3059 232.449 67.5804C233.136 65.8549 233.994 64.302 235.024 63.0941C236.055 61.8863 237.257 61.0235 238.802 60.3333C240.176 59.6431 241.721 59.298 243.266 59.298C244.812 59.298 246.357 59.6431 247.731 60.3333C249.105 61.0235 250.478 61.8863 251.509 63.0941C252.539 64.302 253.397 65.8549 254.084 67.5804C254.771 69.3059 254.943 71.3765 254.943 73.6196C255.286 75.8627 254.943 77.9333 254.256 79.6588Z" fill="black"/>
<path d="M274.518 98.6392H286.366C286.709 98.6392 287.053 98.2941 287.053 97.949V31.6902C287.053 31.3451 286.709 31 286.366 31H274.518C274.174 31 273.831 31.3451 273.831 31.6902V97.7765C273.831 98.2941 274.174 98.6392 274.518 98.6392Z" fill="black"/>
<path d="M327.92 48.4274C327.576 48.4274 327.405 48.6 327.233 48.9451L317.789 76.898C317.445 77.7608 317.102 78.7961 316.93 79.8314C316.759 80.6941 316.415 81.5569 316.243 82.2471C316.072 81.5569 315.9 80.6941 315.557 79.8314C315.213 78.7961 315.041 77.7608 314.698 76.898L304.739 48.9451C304.567 48.6 304.395 48.4274 304.052 48.4274H291.345C290.83 48.4274 290.487 48.9451 290.659 49.4627L309.375 98.6392L308.86 100.192C307.314 104.506 303.88 106.576 298.214 106.576H296.325C295.982 106.576 295.638 106.922 295.638 107.267V117.447C295.638 117.792 295.982 118.137 296.325 118.137H298.557C304.224 118.137 308.86 117.102 312.294 114.859C315.9 112.616 318.476 109.337 320.193 104.851L340.798 49.2902C340.97 48.7725 340.626 48.2549 340.111 48.2549H327.92V48.4274Z" fill="black"/>
<path d="M34.396 32.0375C15.9941 32.0375 1 46.8613 1 65.2632C1 83.6651 15.9941 98.6592 34.396 98.6592C52.7979 98.6592 67.7921 83.6651 67.7921 65.2632C67.7921 46.8613 52.7979 32.0375 34.396 32.0375Z" fill="#009B00"/>
<path d="M54.6722 63.0482H36.6111V44.987H32.0106V63.0482H13.9495V67.6486H32.0106V85.7097H36.6111V67.6486H54.6722V63.0482Z" fill="white"/>
</svg>

<svg xmlns="http://www.w3.org/2000/svg" width="340" height="140" viewBox="0 0 340 140">
  <path fill="#000" d="M114.999 74.31h16.14c-.343 1.553-1.03 2.933-1.717 4.314-.858 1.725-2.06 3.105-3.606 4.313a22.764 22.764 0 0 1-5.323 3.106c-2.06.69-4.464 1.208-7.04 1.208-2.575 0-4.979-.518-7.04-1.38-2.232-1.036-4.121-2.416-5.666-4.142-1.546-1.898-2.92-4.14-3.778-6.902-.858-2.76-1.374-5.866-1.374-9.49 0-3.45.516-6.557 1.546-9.317 1.03-2.761 2.232-5.004 3.949-6.902 1.717-1.898 3.606-3.279 5.838-4.142 2.233-.862 4.465-1.38 7.04-1.38 3.778 0 6.869.863 9.444 2.588 2.233 1.553 3.778 3.279 4.808 5.35.172.172.344.69.516 1.035.171.345.343.517.686.517h13.222c.515 0 .859-.517.687-1.035-.172-.345-.172-.69-.172-.863-.858-2.76-2.06-5.349-3.606-7.592a28.786 28.786 0 0 0-6.181-6.73c-2.404-1.897-5.323-3.278-8.586-4.313C121.18 31.518 117.574 31 113.625 31c-4.636 0-8.929.863-12.878 2.588-3.95 1.726-7.384 4.141-10.303 7.247-2.919 3.106-5.151 6.73-6.697 10.87-1.545 4.142-2.404 8.628-2.404 13.46 0 4.831.859 9.317 2.404 13.459 1.546 4.14 3.95 7.764 6.697 10.87 2.747 3.106 6.182 5.522 10.131 7.247 3.949 1.726 8.07 2.588 12.535 2.588 4.636 0 8.757-1.035 12.191-2.76 2.576-1.38 4.637-3.796 6.182-5.695v6.557c0 .346.343.69.687.69h11.333c.343 0 .686-.344.686-.69V62.75c0-.345-.343-.69-.686-.69h-28.504c-.344 0-.687.345-.687.69v10.87c0 .346.172.69.687.69Zm35.2 24.502h11.848c.344 0 .687-.345.687-.69V31.69c0-.345-.343-.69-.687-.69h-11.848c-.343 0-.687.345-.687.69v66.432c0 .345.344.69.687.69Zm63.533-11.216V65.165c0-2.416-.343-4.832-1.03-6.902-.687-2.243-1.889-4.141-3.606-5.694-1.717-1.553-3.949-2.761-6.525-3.796-2.747-.863-6.01-1.38-10.131-1.38-3.434 0-6.353.344-9.101 1.207-2.747.863-4.979 1.898-6.868 3.451-1.889 1.553-3.606 3.278-4.636 5.176-1.03 1.726-1.717 3.451-2.061 5.35 0 .172-.171.69-.171 1.207 0 .518.343.863.686.863h12.364c.343 0 .686-.172.686-.518.172-.345.344-.862.516-1.38.686-1.208 1.373-2.07 2.575-2.76 1.546-.863 3.778-1.381 6.354-1.381 2.747 0 4.636.345 6.009 1.208 1.202.69 1.889 1.725 1.889 3.106 0 1.725-1.03 2.933-2.919 3.623-2.232.863-5.838 1.726-10.818 2.416-2.232.345-4.636.69-6.868 1.38-2.232.518-4.464 1.38-6.182 2.588-1.888 1.208-3.434 2.589-4.636 4.487-1.202 1.898-1.717 4.14-1.717 7.074 0 2.761.515 5.004 1.546 7.075 1.03 1.898 2.403 3.623 4.121 4.831 1.717 1.208 3.605 2.07 5.838 2.588 2.232.518 4.292.863 6.525.863 4.292 0 7.727-.863 10.474-2.416 2.061-1.207 3.778-2.588 5.151-4.486a722.703 722.703 0 0 0 1.031 5.694h11.676c-.172 0-.172-8.8-.172-11.043Zm-13.221-8.455c0 2.761-1.031 5.004-3.263 6.557-2.232 1.726-5.323 2.588-8.929 2.588-2.747 0-4.636-.345-5.838-1.208-1.03-.69-1.545-1.725-1.545-3.106 0-1.725.686-2.76 1.888-3.45 1.374-.69 3.435-1.38 6.01-1.898 2.576-.518 4.98-1.036 7.212-1.553 1.717-.346 3.263-1.036 4.636-1.726v3.796h-.171ZM267.821 31h-11.848c-.343 0-.687.345-.687.69v22.086c-1.202-1.38-2.575-2.76-4.293-3.796-2.575-1.725-6.009-2.588-9.959-2.588-3.091 0-6.01.69-8.757 2.07-2.747 1.381-5.151 3.107-7.384 5.522-2.06 2.243-3.777 5.177-4.979 8.283-1.202 3.278-1.889 6.73-1.889 10.525 0 3.796.515 7.247 1.717 10.526 1.202 3.106 2.747 5.866 4.808 8.282 2.061 2.416 4.464 4.141 7.212 5.522 2.747 1.38 5.838 1.898 8.929 1.898 3.777 0 7.04-.863 9.787-2.589 1.889-1.207 3.434-2.588 4.808-4.313v5.004c0 .345.344.69.687.69h11.505c.343 0 .686-.345.686-.69V31.69c.344-.345 0-.69-.343-.69Zm-13.565 48.659c-.687 1.725-1.545 3.106-2.576 4.313-1.03 1.208-2.232 2.071-3.777 2.761a11.882 11.882 0 0 1-9.101 0c-1.374-.69-2.747-1.553-3.778-2.76-1.03-1.208-1.888-2.589-2.575-4.314-.687-1.726-.859-3.796-.859-6.04 0-2.243.344-4.313.859-6.039.687-1.725 1.545-3.278 2.575-4.486 1.031-1.208 2.233-2.07 3.778-2.76a9.978 9.978 0 0 1 4.464-1.036 9.98 9.98 0 0 1 4.465 1.035c1.374.69 2.747 1.553 3.778 2.761 1.03 1.208 1.888 2.76 2.575 4.486.687 1.726.859 3.796.859 6.04.343 2.243 0 4.313-.687 6.039Zm20.262 18.981h11.848c.343 0 .687-.346.687-.691V31.69c0-.345-.344-.69-.687-.69h-11.848c-.344 0-.687.345-.687.69v66.087c0 .517.343.862.687.862Zm53.402-50.213c-.344 0-.515.173-.687.518l-9.444 27.953c-.344.863-.687 1.898-.859 2.933-.171.863-.515 1.726-.687 2.416-.171-.69-.343-1.553-.686-2.416-.344-1.035-.516-2.07-.859-2.933l-9.959-27.953c-.172-.345-.344-.518-.687-.518h-12.707c-.515 0-.858.518-.686 1.036l18.716 49.176-.515 1.553c-1.546 4.314-4.98 6.384-10.646 6.384h-1.889c-.343 0-.687.346-.687.691v10.18c0 .345.344.69.687.69h2.232c5.667 0 10.303-1.035 13.737-3.278 3.606-2.243 6.182-5.522 7.899-10.008l20.605-55.56c.172-.518-.172-1.036-.687-1.036H327.92v.172Z"/>
  <path fill="#009B00" d="M34.396 32.038C15.994 32.038 1 46.86 1 65.263S15.994 98.66 34.396 98.66s33.396-14.994 33.396-33.396-14.994-33.226-33.396-33.226Z"/>
  <path fill="#fff" d="M54.672 63.048h-18.06V44.987H32.01v18.061H13.949v4.6h18.062V85.71h4.6V67.649h18.061v-4.6Z"/>
</svg>
